icons/svgs/sort-solid.svg

<svg width="24" height="24" viewBox="0 0 24 24" fill="none" xmlns="http://www.w3.org/2000/svg">
<path d="M11.6014 3.64062C12.0702 3.13281 12.8905 3.13281 13.3592 3.64062L18.3592 8.64062C18.7108 8.99219 18.828 9.53906 18.6327 10.0078C18.4374 10.4766 18.0077 10.7891 17.4999 10.7891H7.49985C6.99204 10.7891 6.52329 10.4766 6.32798 10.0078C6.13266 9.53906 6.24985 8.99219 6.60141 8.64062L11.6014 3.64062ZM11.6014 20.3984L6.60141 15.3984C6.24985 15.0469 6.13266 14.5 6.32798 14.0312C6.52329 13.5625 6.99204 13.25 7.49985 13.25H17.4999C17.9686 13.25 18.4374 13.5625 18.6327 14.0312C18.828 14.5 18.7108 15.0469 18.3592 15.3984L13.3592 20.3984C12.8905 20.9062 12.0702 20.9062 11.6014 20.3984Z" fill="black"/>
</svg>

<svg xmlns="http://www.w3.org/2000/svg" width="24" height="24" fill="currentColor" class="icon-sort-solid" viewBox="0 0 24 24">
  <mask id="a" width="13" height="18" x="6" y="3" maskUnits="userSpaceOnUse" style="mask-type:alpha">
    <path d="M11.601 3.64a1.205 1.205 0 0 1 1.758 0l5 5c.352.352.469.9.274 1.368-.196.469-.625.781-1.133.781h-10a1.28 1.28 0 0 1-1.172-.781 1.26 1.26 0 0 1 .273-1.367zm0 16.758-5-5a1.26 1.26 0 0 1-.273-1.367A1.28 1.28 0 0 1 7.5 13.25h10c.469 0 .937.313 1.133.781a1.26 1.26 0 0 1-.274 1.367l-5 5a1.205 1.205 0 0 1-1.758 0"/>
  </mask>
  <g mask="url(#a)">
    <path d="M0 0h24v24H0z"/>
  </g>
</svg>
